X:1
T:God Bless America
T:God Bless America
T:  By IRVING BERLIN, arr. Erik W.G. Leidzen
C:By IRVING BERLIN, arr. Erik W.G. Leidzen
L:1/8
M:2/2
K:Bb
V:1 treble nm="Piano" snm="Pno."
V:1
!f!"^\nMarziale""^2nd Bb Clarinet" z2 .f2 !>!PTc4- | c2 .f2 !>!PTB4- | B2 .f2 .e2 .d2 | %3
 .e2 z2 !^!a2"^A" z2 ||!mf!!<(! (D8!<)! | F4 =E4 | _E2) z C A,4- | A,4 (A,B,CD) | !tenuto!E8 | %9
 !tenuto!G4 !tenuto!F4 | F8- | F2 z2 .E2 .F2 | !tenuto!G4 !tenuto!E4- | E4 !tenuto!B4 | %14
 !tenuto!B4 !tenuto!D4- | D4 .G2 .A2 | !>!B4 .A2 .G2 | !>!A4 .G2 .F2 |!>(! !>!G8-!>)! | %19
 G2 z2!p! (F3"^B" G ||"_poco a poco cresc." F4) F4- | F4 (G3 A | B4) F4- | F4 (A3 B | A4) (F4 | %25
 E4) (=B3 c) | !tenuto!d4 !tenuto!_d4 | !tenuto!c4 !tenuto!_B4 |!f! !>!e8 | !tenuto!B4 !tenuto!c4 | %30
 !>!B2 .A2 !tenuto!G4- | G2 z2 !>!C4 | (D8 | E8 | D2) z2 z4 |"^C" z8 || %36
!p!"^cantabile"!<(! (B,8!<)! |"^poco" A,4 G,4 | !>!A,2) z (G, F,4- | F,8) | (C8 | B,4 C4 | D8- | %43
 D2) z2 (C2 D2 | E4 G,4- | G,4)!>(! (E4!>)! | D4 F,4- | F,4)!>(! (B,2 C2 | D4)!>)! (C2 B,2 | %49
 C4) B,2 A,2 |!>(! B,8-!>)! | B,2 z2 (F,3 G, ||"^D""^poco a poco cresc." A,4 F,4- | F,4) (G,3 A, | %54
 B,4 F,4- | F,4) (A,3 B, | C4 F,4- | F,4) (=B,3 C |!>(! D4 _D4!>)! | C4 _B,4) |!f! (!>!G8 | F4 E4 | %62
 !>!D2) .C2 !tenuto!B,4- | B,2 z2"_dim." (E4 | D8 | C8 | B,8- | B,2) z2 z4 || %68
"^E"!ff!{^cd=e} (!>!^f2 z2) z4 | z4 (!>!PTg4{ag} | ^f2) z2 !^!D2 z2 | z8 |{=e^fg} (!>!a2 z2) z4 | %73
 z4 (!>!PTb4{c'b} | a2) z2 !>!A4 | !>!B4 !>!c4 ||"^F"!f!"_marcato" d8 |!<(! f4 B4!<)! | %78
 c2 z c A4- | A4 (f=efg) | _e8 | e4 f4 | f8- | f2 z2 !>!_a2 f2 | !>!g4 e4- | e4 b4 | !>!b4 d4- | %87
 d4 .g2 .a2 | !>!b4 .a2 .g2 | !>!a4 .g2 .f2 | !>!g8- | g2 z2 .c2 z .d || %92
"^G""_poco a poco cresc." !tenuto!e4 !tenuto!e4- | e4 .f2 z .f | !tenuto!f4 !tenuto!d4- | %95
 d4 .e2 z .d | !tenuto!c4 !tenuto!f4- | f4 .a2 z .a |!<(! _a8-!<)! | a8 |!ff!!ff! !>!g8 | %101
 !>!b4 !>!c'4 | !>!b2 .a2 !>!g4- | g2 z2 g4 | f8 | e8 ||"^H" d2 (B,C ^CDE=E | FG_AB cdef) | %108
!fff!"_allargando" !>!b8 | !>!b4 !>!f4 | !>!f2 !>!e2 !>!d4- | !>!d4 !>!b4 | !>!f8 | !>!e8 | %114
 !>!d8- | !fermata!d2 z2 z4 |] %116

